X: '1'
T: Ode to Denis Martin
C: Gerry Gudzio
Z: Gord Fisch
N: 28 July 2014
R:reel
M:4/4
L:1/8
K:G
|DEGA B2B2| AGE2D4|DEGA B2B2| cB c2 A4|
DEGA B2B2| AG E2D4|dedc B2B2| AG A2 G4|
ddBd e2 e2| dB G2 E4|DEGA B2B2| cB c2 A4|
ddBd e2e2| dB G2E4| DEGA BdcB| A2A2 G4|
